logos/kubecost-member.svg

<svg xmlns="http://www.w3.org/2000/svg" role="img" viewBox="-10.96 -10.96 621.92 147.42"><title>Kubecost (member) logo</title><path fill="#023927" d="M127.815 105.573V26.1904H142.206V70.0645H144.262L162.953 49.3358H181.643L155.57 76.5712 182.577 105.573H164.074L144.262 83.2639H142.206V105.573H127.815V105.573zM210.52 106.502C206.127 106.502 202.296 105.48 198.932 103.528 195.661 101.483 193.044 98.7871 191.268 95.1619 189.399 91.6297 188.558 87.5397 188.558 82.892V49.3358H202.857V81.7766C202.857 86.0525 203.885 89.2129 206.034 91.2579 208.09 93.3958 211.08 94.4183 215.005 94.4183 219.398 94.4183 222.855 92.931 225.285 90.0495 227.715 87.1679 228.93 83.0779 228.93 77.8725V49.3358H243.321V105.573H229.023V98.2294H226.967C226.033 100.088 224.351 101.948 221.827 103.807 219.398 105.573 215.566 106.502 210.52 106.502zM286.309 107.153C281.169 107.153 277.338 106.316 274.534 104.55 271.824 102.784 269.768 100.925 268.46 98.7871H266.404V105.573H252.293V26.1904H266.684V55.8426H268.74C269.581 54.4483 270.703 53.2399 272.105 52.0315 273.506 50.8231 275.375 49.8006 277.712 49.057 280.048 48.2204 282.945 47.8486 286.309 47.8486 290.888 47.8486 295.094 48.964 298.925 51.1949 302.757 53.4258 305.934 56.6792 308.271 61.048 310.607 65.3238 311.822 70.5292 311.822 76.6642V78.5232C311.822 84.6582 310.607 89.8636 308.271 94.1394 305.934 98.4153 302.757 101.762 298.925 103.993 295.094 106.223 290.888 107.153 286.309 107.153zM282.01 94.6972C286.403 94.6972 290.141 93.3028 293.038 90.4213 296.028 87.6327 297.524 83.4498 297.524 77.9655V76.8501C297.524 71.3658 296.028 67.2759 293.131 64.3943 290.234 61.6057 286.496 60.1184 282.01 60.1184 277.618 60.1184 273.88 61.5127 270.983 64.3943 267.993 67.2759 266.497 71.3658 266.497 76.8501V77.9655C266.497 83.4498 267.993 87.5397 270.983 90.4213 273.88 93.3028 277.525 94.6972 282.01 94.6972zM345.371 107.153C339.764 107.153 334.811 105.945 330.512 103.621 326.213 101.204 322.849 97.8576 320.513 93.4888 318.083 89.1199 316.962 84.0075 316.962 78.1514V76.7571C316.962 70.901 318.176 65.6956 320.513 61.4198 322.849 57.051 326.213 53.7046 330.419 51.2878 334.717 48.8711 339.577 47.7556 345.278 47.7556 350.791 47.7556 355.651 48.964 359.763 51.4738 363.875 53.8905 367.052 57.3298 369.295 61.6986 371.538 66.0675 372.752 71.087 372.752 76.8501V81.6837H331.634C331.82 85.4948 333.222 88.6552 335.932 91.072 338.642 93.4888 342.007 94.6972 345.932 94.6972 349.95 94.6972 352.941 93.8606 354.81 92.0945 356.679 90.3283 358.174 88.4693 359.108 86.3313L370.883 92.4663C369.855 94.4183 368.267 96.5562 366.304 98.8801 364.248 101.204 361.632 103.156 358.267 104.736 354.716 106.409 350.511 107.153 345.371 107.153zM331.54 70.994H357.987C357.707 67.7406 356.398 65.1379 354.062 63.1859 351.726 61.2339 348.735 60.2114 344.997 60.2114 341.166 60.2114 338.082 61.2339 335.745 63.1859 333.503 65.1379 332.101 67.7406 331.54 70.994zM407.33 107.153C401.816 107.153 396.863 106.037 392.471 103.714 387.985 101.483 384.527 98.1364 381.911 93.8606 379.294 89.5847 378.079 84.3793 378.079 78.2444V76.6642C378.079 70.5292 379.387 65.3238 381.911 61.048 384.527 56.7721 387.985 53.4258 392.471 51.1949 396.956 48.964 401.909 47.7556 407.33 47.7556 412.75 47.7556 417.329 48.6852 421.254 50.6372 425.086 52.4962 428.263 55.0989 430.693 58.4453 433.122 61.6986 434.618 65.4168 435.459 69.5997L421.534 72.4813C421.254 70.2504 420.506 68.2054 419.478 66.3463 418.45 64.4873 416.955 63.0929 414.993 62.0705 413.03 61.048 410.6 60.4902 407.797 60.4902 404.9 60.4902 402.283 61.1409 399.947 62.3493 397.611 63.5577 395.835 65.4168 394.433 67.9265 393.125 70.3433 392.471 73.4108 392.471 76.943V78.0585C392.471 81.5907 393.125 84.6582 394.433 87.075 395.742 89.4918 397.611 91.3508 399.947 92.6522 402.283 93.8606 404.9 94.5112 407.797 94.5112 412.096 94.5112 415.46 93.3958 417.703 91.1649 419.946 88.934 421.347 85.9595 422.002 82.3343L435.926 85.5877C434.898 89.5847 433.216 93.2099 430.88 96.5562 428.45 99.8096 425.366 102.412 421.441 104.364 417.423 106.223 412.75 107.153 407.33 107.153zM469.943 107.153C464.335 107.153 459.289 106.037 454.803 103.714 450.318 101.483 446.766 98.1364 444.243 93.8606 441.627 89.5847 440.412 84.3793 440.412 78.3373V76.4783C440.412 70.4363 441.72 65.2309 444.243 60.955 446.86 56.6792 450.318 53.3328 454.803 51.1019 459.289 48.8711 464.335 47.6627 469.943 47.6627 475.55 47.6627 480.596 48.7781 485.082 51.1019 489.568 53.3328 493.119 56.6792 495.642 60.955 498.259 65.2309 499.474 70.4363 499.474 76.4783V78.3373C499.474 84.3793 498.165 89.5847 495.642 93.8606 493.025 98.1364 489.568 101.483 485.082 103.714 480.596 106.037 475.55 107.153 469.943 107.153zM469.943 94.5112C474.335 94.5112 477.979 93.1169 480.877 90.2354 483.774 87.3538 485.175 83.3568 485.175 78.0585V76.943C485.175 71.6447 483.774 67.5547 480.877 64.7661 477.979 61.9775 474.335 60.4902 469.849 60.4902 465.457 60.4902 461.812 61.8845 458.915 64.7661 456.018 67.5547 454.616 71.6447 454.616 76.943V78.0585C454.616 83.3568 456.018 87.4468 458.915 90.2354 461.906 93.1169 465.55 94.5112 469.943 94.5112zM529.472 107.153C522.089 107.153 516.015 105.573 511.342 102.412 506.669 99.2519 503.772 94.6972 502.838 88.8411L516.108 85.4018C516.669 88.0045 517.51 90.1424 518.818 91.6297 520.033 93.1169 521.622 94.2324 523.491 94.8831 525.36 95.5337 527.416 95.8126 529.565 95.8126 532.929 95.8126 535.359 95.2549 536.948 94.0465 538.536 92.8381 539.378 91.4438 539.378 89.6777 539.378 87.9115 538.63 86.6102 537.135 85.6807 535.639 84.7511 533.21 84.0075 529.845 83.3568L526.668 82.7991C522.743 82.0555 519.098 81.033 515.828 79.6387 512.557 78.3373 509.94 76.4783 507.978 74.1544 506.015 71.8306 504.987 68.7631 504.987 65.045 504.987 59.4678 507.043 55.1919 511.155 52.2174 515.267 49.2429 520.687 47.7556 527.322 47.7556 533.677 47.7556 538.91 49.1499 543.022 51.9385 547.227 54.7271 549.938 58.4453 551.246 62.907L537.882 66.997C537.228 64.1154 536.013 62.0705 534.144 60.8621 532.275 59.6537 529.939 59.003 527.229 59.003 524.519 59.003 522.369 59.4678 520.968 60.3973 519.566 61.3268 518.818 62.6282 518.818 64.3013 518.818 66.1604 519.566 67.4618 521.061 68.2983 522.556 69.1349 524.612 69.7856 527.229 70.2504L530.406 70.8081C534.705 71.5517 538.536 72.5742 541.994 73.7826 545.452 74.991 548.162 76.8501 550.218 79.081 552.274 81.4048 553.208 84.4723 553.208 88.4693 553.208 94.3253 551.059 98.8801 546.76 102.133 542.461 105.573 536.667 107.153 529.472 107.153zM581.711 105.573C577.973 105.573 574.983 104.457 572.647 102.133 570.31 99.8096 569.189 96.7421 569.189 92.931V61.1409H555.078V49.3358H569.189V31.8606H583.58V49.3358H599.094V61.1409H583.58V90.4213C583.58 92.6522 584.608 93.8606 586.758 93.8606H599.094V105.666H581.711V105.573z"/><g style="mix-blend-mode:multiply"><path fill="#64E892" d="M40.4368 72.946C18.2886 72.946 1 84.3793 1 98.973C1 113.567 18.2886 125 40.4368 125C62.5849 125 79.8736 113.567 79.8736 98.973C79.8736 84.3793 62.5849 72.946 40.4368 72.946ZM40.4368 114.496C26.7928 114.496 11.5601 108.082 11.5601 98.973C11.5601 89.8636 26.7928 83.4498 40.4368 83.4498C43.6142 83.4498 46.885 83.8216 49.9689 84.4723C54.3612 85.123 75.1075 91.4438 68.4724 102.598C65.2016 109.756 52.2118 114.496 40.4368 114.496Z"/></g><g style="mix-blend-mode:multiply"><path fill="#64E892" d="M63.2391 1C45.9505 1 36.6053 30.931 36.6053 59.096C36.6053 87.2609 45.9505 117.192 63.2391 117.192C80.5278 117.192 89.873 87.2609 89.873 59.096C89.873 30.931 80.5278 1 63.2391 1ZM65.0147 106.409C56.0433 111.894 49.8755 84.3793 49.8755 84.3793C48.1933 77.3148 47.1654 68.8561 47.1654 59.1889C47.1654 30.0945 56.6975 11.5037 63.2391 11.5037C69.7808 11.5037 79.3129 30.0945 79.3129 59.1889C79.3129 85.6807 71.3695 103.528 65.0147 106.409Z"/></g><g style="mix-blend-mode:multiply"><path fill="#64E892" d="M65.7623 62.8141C50.3427 43.108 29.0356 34.5562 17.1672 43.3868C13.2422 46.3613 10.719 50.8231 9.97136 56.4933C8.47612 67.5547 13.5225 81.7766 23.4285 94.5113C34.7362 109.012 49.2212 117.471 60.8093 117.471C65.0146 117.471 68.8462 116.355 72.0236 114.031C75.9485 111.057 78.4717 106.595 79.2194 100.925C80.7146 89.7706 75.6682 75.5487 65.7623 62.8141ZM68.4724 102.505L68.3789 102.598C68.0986 103.156 67.7248 103.621 67.2575 104.178C67.0706 104.457 66.7902 104.736 66.6033 104.922C66.5099 105.015 66.323 105.201 66.2295 105.294C66.1361 105.387 66.0426 105.48 65.9492 105.573C65.7623 105.759 65.5754 105.852 65.4819 105.945L65.3885 106.037C65.2016 106.13 65.0147 106.316 64.8277 106.409C64.6408 106.502 64.4539 106.595 64.267 106.688C64.1736 106.688 64.0801 106.781 63.9867 106.781C63.7998 106.874 63.7063 106.874 63.5194 106.874C54.6415 108.175 41.932 101.111 31.7457 87.9116C23.7088 77.6867 19.2231 65.7886 20.3445 57.7017C20.7184 54.8201 21.7463 52.7751 23.4285 51.5667C24.7368 50.6372 26.5124 50.0795 28.5683 50.0795C36.0445 50.0795 47.726 56.4933 57.445 69.042C63.8932 77.3148 69.0331 89.7706 69.7807 97.3928V97.4858C69.7807 97.5787 69.7807 97.5787 69.7807 97.6717C69.8742 99.3448 69.5003 100.832 68.4724 102.505Z"/></g></svg>

<svg xmlns="http://www.w3.org/2000/svg" viewBox="-10.96 -10.96 621.92 147.42">
	<path fill="#023927" d="M127.815 105.573V26.19h14.391v43.874h2.056l18.691-20.728h18.69L155.57 76.57l27.007 29.002h-18.503l-19.812-22.31h-2.056v22.31h-14.391zm82.705.929c-4.393 0-8.224-1.022-11.588-2.974-3.271-2.045-5.888-4.74-7.664-8.366-1.869-3.532-2.71-7.622-2.71-12.27V49.336h14.299v32.44c0 4.276 1.028 7.437 3.177 9.482 2.056 2.138 5.046 3.16 8.971 3.16 4.393 0 7.85-1.487 10.28-4.369 2.43-2.881 3.645-6.971 3.645-12.177V49.337h14.391v56.237h-14.298v-7.344h-2.056c-.934 1.859-2.616 3.719-5.14 5.578-2.429 1.766-6.261 2.695-11.307 2.695zm75.789.651c-5.14 0-8.971-.837-11.775-2.603-2.71-1.766-4.766-3.625-6.074-5.763h-2.056v6.786h-14.111V26.19h14.391v29.653h2.056c.841-1.395 1.963-2.603 3.365-3.812 1.401-1.208 3.27-2.23 5.607-2.974 2.336-.837 5.233-1.208 8.597-1.208 4.579 0 8.785 1.115 12.616 3.346 3.832 2.23 7.009 5.484 9.346 9.853 2.336 4.276 3.551 9.481 3.551 15.616v1.86c0 6.134-1.215 11.34-3.551 15.615-2.337 4.276-5.514 7.623-9.346 9.854-3.831 2.23-8.037 3.16-12.616 3.16zm-4.299-12.456c4.393 0 8.131-1.394 11.028-4.276 2.99-2.788 4.486-6.971 4.486-12.456V76.85c0-5.484-1.496-9.574-4.393-12.456-2.897-2.788-6.635-4.276-11.121-4.276-4.392 0-8.13 1.395-11.027 4.276-2.99 2.882-4.486 6.972-4.486 12.456v1.116c0 5.484 1.496 9.574 4.486 12.455 2.897 2.882 6.542 4.276 11.027 4.276zm63.361 12.456c-5.607 0-10.56-1.208-14.859-3.532-4.299-2.417-7.663-5.763-9.999-10.132-2.43-4.37-3.551-9.482-3.551-15.338v-1.394c0-5.856 1.214-11.061 3.551-15.337 2.336-4.369 5.7-7.715 9.906-10.132 4.298-2.417 9.158-3.532 14.859-3.532 5.513 0 10.373 1.208 14.485 3.718 4.112 2.417 7.289 5.856 9.532 10.225 2.243 4.368 3.457 9.388 3.457 15.151v4.834h-41.118c.186 3.81 1.588 6.971 4.298 9.388s6.075 3.625 10 3.625c4.018 0 7.009-.836 8.878-2.603 1.869-1.766 3.364-3.625 4.298-5.763l11.775 6.135c-1.028 1.952-2.616 4.09-4.579 6.414-2.056 2.324-4.672 4.276-8.037 5.856-3.551 1.673-7.756 2.417-12.896 2.417zM331.54 70.994h26.447c-.28-3.253-1.589-5.856-3.925-7.808s-5.327-2.975-9.065-2.975c-3.831 0-6.915 1.023-9.252 2.975-2.242 1.952-3.644 4.555-4.205 7.808zm75.79 36.159c-5.514 0-10.467-1.116-14.859-3.439-4.486-2.231-7.944-5.578-10.56-9.853-2.617-4.276-3.832-9.482-3.832-15.617v-1.58c0-6.135 1.308-11.34 3.832-15.616 2.616-4.276 6.074-7.622 10.56-9.853 4.485-2.231 9.438-3.44 14.859-3.44 5.42 0 9.999.93 13.924 2.882 3.832 1.86 7.009 4.462 9.439 7.808 2.429 3.254 3.925 6.972 4.766 11.155l-13.925 2.881c-.28-2.23-1.028-4.276-2.056-6.135s-2.523-3.253-4.485-4.276c-1.963-1.022-4.393-1.58-7.196-1.58-2.897 0-5.514.65-7.85 1.86-2.336 1.208-4.112 3.067-5.514 5.577-1.308 2.416-1.962 5.484-1.962 9.016v1.115c0 3.533.654 6.6 1.962 9.017a13.821 13.821 0 0 0 5.514 5.577c2.336 1.209 4.953 1.86 7.85 1.86 4.299 0 7.663-1.116 9.906-3.347 2.243-2.231 3.644-5.206 4.299-8.83l13.924 3.253a33.549 33.549 0 0 1-5.046 10.968c-2.43 3.254-5.514 5.856-9.439 7.808-4.018 1.859-8.691 2.789-14.111 2.789zm62.613 0c-5.608 0-10.654-1.116-15.14-3.439-4.485-2.231-8.037-5.578-10.56-9.853-2.616-4.276-3.831-9.482-3.831-15.524v-1.859c0-6.042 1.308-11.247 3.831-15.523 2.617-4.276 6.075-7.622 10.56-9.853 4.486-2.23 9.532-3.44 15.14-3.44 5.607 0 10.653 1.116 15.139 3.44 4.486 2.23 8.037 5.577 10.56 9.853 2.617 4.276 3.832 9.481 3.832 15.523v1.86c0 6.041-1.309 11.247-3.832 15.523-2.617 4.275-6.074 7.622-10.56 9.853-4.486 2.323-9.532 3.439-15.139 3.439zm0-12.642c4.392 0 8.036-1.394 10.934-4.276 2.897-2.881 4.298-6.878 4.298-12.177v-1.115c0-5.298-1.401-9.388-4.298-12.177-2.898-2.789-6.542-4.276-11.028-4.276-4.392 0-8.037 1.395-10.934 4.276-2.897 2.789-4.299 6.879-4.299 12.177v1.115c0 5.299 1.402 9.389 4.299 12.177 2.991 2.882 6.635 4.276 11.028 4.276zm59.529 12.642c-7.383 0-13.457-1.58-18.13-4.741-4.673-3.16-7.57-7.715-8.504-13.57l13.27-3.44c.561 2.602 1.402 4.74 2.71 6.228a10.392 10.392 0 0 0 4.673 3.253c1.869.65 3.925.93 6.074.93 3.364 0 5.794-.558 7.383-1.767 1.588-1.208 2.43-2.602 2.43-4.368 0-1.766-.748-3.068-2.243-3.997-1.496-.93-3.925-1.674-7.29-2.324l-3.177-.558c-3.925-.744-7.57-1.766-10.84-3.16-3.271-1.302-5.888-3.16-7.85-5.485-1.963-2.323-2.991-5.39-2.991-9.109 0-5.577 2.056-9.853 6.168-12.828 4.112-2.974 9.532-4.461 16.167-4.461 6.355 0 11.588 1.394 15.7 4.182 4.205 2.79 6.916 6.507 8.224 10.969l-13.364 4.09c-.654-2.882-1.869-4.926-3.738-6.135-1.869-1.208-4.205-1.859-6.915-1.859s-4.86.465-6.261 1.394c-1.402.93-2.15 2.231-2.15 3.904 0 1.86.748 3.16 2.243 3.997 1.495.837 3.551 1.488 6.168 1.952l3.177.558c4.299.744 8.13 1.766 11.588 2.975 3.458 1.208 6.168 3.067 8.224 5.298 2.056 2.324 2.99 5.391 2.99 9.388 0 5.856-2.149 10.411-6.448 13.664-4.299 3.44-10.093 5.02-17.288 5.02zm52.239-1.58c-3.738 0-6.728-1.116-9.064-3.44-2.337-2.323-3.458-5.39-3.458-9.202v-31.79h-14.111V49.336h14.111V31.86h14.391v17.475h15.514V61.14H583.58v29.28c0 2.231 1.028 3.44 3.178 3.44h12.336v11.805h-17.383v-.093z"/>
	<path fill="#64E892" d="M40.437 72.946C18.289 72.946 1 84.379 1 98.973 1 113.567 18.289 125 40.437 125c22.148 0 39.437-11.433 39.437-26.027 0-14.594-17.29-26.027-39.437-26.027Zm0 41.55c-13.644 0-28.877-6.414-28.877-15.523 0-9.11 15.233-15.523 28.877-15.523 3.177 0 6.448.372 9.532 1.022 4.392.651 25.139 6.972 18.503 18.126-3.27 7.158-16.26 11.898-28.035 11.898Z" style="mix-blend-mode:multiply"/>
	<path fill="#64E892" d="M63.24 1C45.95 1 36.604 30.931 36.604 59.096c0 28.165 9.346 58.096 26.634 58.096 17.289 0 26.634-29.931 26.634-58.096C89.873 30.931 80.528 1 63.239 1Zm1.775 105.409c-8.972 5.485-15.14-22.03-15.14-22.03-1.682-7.064-2.71-15.523-2.71-25.19 0-29.095 9.532-47.685 16.074-47.685 6.542 0 16.074 18.59 16.074 47.685 0 26.492-7.944 44.339-14.298 47.22Z" style="mix-blend-mode:multiply"/>
	<path fill="#64E892" d="M65.762 62.814c-15.42-19.706-36.726-28.258-48.595-19.427-3.925 2.974-6.448 7.436-7.196 13.106-1.495 11.062 3.552 25.284 13.457 38.018 11.308 14.501 25.793 22.96 37.381 22.96 4.206 0 8.037-1.116 11.215-3.44 3.924-2.974 6.448-7.436 7.195-13.106 1.496-11.154-3.55-25.376-13.457-38.11Zm2.71 39.691-.093.093c-.28.558-.654 1.023-1.122 1.58-.186.279-.467.558-.654.744l-.373.372-.28.279c-.188.186-.375.279-.468.372l-.094.092c-.186.093-.373.279-.56.372l-.561.279c-.093 0-.187.093-.28.093-.187.093-.28.093-.468.093-8.877 1.301-21.587-5.763-31.773-18.962-8.037-10.225-12.523-22.123-11.401-30.21.373-2.882 1.401-4.927 3.084-6.135 1.308-.93 3.083-1.487 5.14-1.487 7.476 0 19.157 6.413 28.876 18.962 6.448 8.273 11.588 20.729 12.336 28.35v.28c.093 1.673-.28 3.16-1.309 4.833Z" style="mix-blend-mode:multiply"/>
</svg>
